assets/icons/history-filled.svg

<?xml version="1.0" encoding="UTF-8" standalone="no"?>
<svg
   viewBox="0 0 24 24"
   height="24"
   id="svg7384"
   version="1.1"
   width="24"
   sodipodi:docname="history-filled.svg"
   inkscape:version="1.2 (1:1.2.1+202207142221+cd75a1ee6d)"
   xmlns:inkscape="http://www.inkscape.org/namespaces/inkscape"
   xmlns:sodipodi="http://sodipodi.sourceforge.net/DTD/sodipodi-0.dtd"
   xmlns="http://www.w3.org/2000/svg"
   xmlns:svg="http://www.w3.org/2000/svg"
   xmlns:rdf="http://www.w3.org/1999/02/22-rdf-syntax-ns#"
   xmlns:cc="http://creativecommons.org/ns#"
   xmlns:dc="http://purl.org/dc/elements/1.1/">
  <sodipodi:namedview
     id="namedview22"
     pagecolor="#ffffff"
     bordercolor="#666666"
     borderopacity="1.0"
     inkscape:pageshadow="2"
     inkscape:pageopacity="0.0"
     inkscape:pagecheckerboard="0"
     showgrid="true"
     inkscape:zoom="27.999944"
     inkscape:cx="17.21432"
     inkscape:cy="10.035734"
     inkscape:window-width="1920"
     inkscape:window-height="1043"
     inkscape:window-x="0"
     inkscape:window-y="0"
     inkscape:window-maximized="1"
     inkscape:current-layer="svg7384"
     inkscape:showpageshadow="2"
     inkscape:deskcolor="#d1d1d1">
    <inkscape:grid
       type="xygrid"
       id="grid23" />
  </sodipodi:namedview>
  <metadata
     id="metadata20854">
    <rdf:RDF>
      <cc:Work
         rdf:about="">
        <dc:format>image/svg+xml</dc:format>
        <dc:type
           rdf:resource="http://purl.org/dc/dcmitype/StillImage" />
      </cc:Work>
    </rdf:RDF>
  </metadata>
  <defs
     id="defs7386">
    <linearGradient
       id="linearGradient5606"
       inkscape:swatch="solid">
      <stop
         id="stop5608"
         offset="0"
         style="stop-color:#000000;stop-opacity:1;" />
    </linearGradient>
    <linearGradient
       id="linearGradient4526"
       inkscape:swatch="solid">
      <stop
         id="stop4528"
         offset="0"
         style="stop-color:#ffffff;stop-opacity:1;" />
    </linearGradient>
    <linearGradient
       id="linearGradient3600-4"
       inkscape:swatch="gradient">
      <stop
         id="stop3602-7"
         offset="0"
         style="stop-color:#f4f4f4;stop-opacity:1" />
      <stop
         id="stop3604-6"
         offset="1"
         style="stop-color:#dbdbdb;stop-opacity:1" />
    </linearGradient>
  </defs>
  <path
     id="path304"
     style="fill:#808080;fill-rule:evenodd;stroke:none;stroke-width:2;stroke-linecap:round;stroke-linejoin:round"
     d="M 11.5 4 A 7.5 7.5 0 0 0 7.2304688 5.3515625 L 7.9492188 6.0703125 A 1.0001 1.0001 0 0 1 7.5917969 7.7148438 C 6.7842251 8.0167155 5.9394475 8.2949632 5.0566406 8.5546875 A 1.0001 1.0001 0 0 1 5.0507812 8.5566406 C 4.8877874 8.6037542 4.7249392 8.6481994 4.5625 8.6933594 A 7.5 7.5 0 0 0 4 11.5 A 7.5 7.5 0 0 0 11.5 19 A 7.5 7.5 0 0 0 19 11.5 A 7.5 7.5 0 0 0 11.5 4 z M 11 6 L 12 6 L 12 11.8125 L 15.376953 15.669922 L 14.623047 16.330078 L 11 12.1875 L 11 6 z " />
  <g
     id="layer9"
     label="status"
     style="display:inline;stroke-width:0.8"
     transform="matrix(1.25,0,0,1.25,-1114.2503,235.75)" />
  <g
     id="layer2"
     style="display:inline;stroke-width:0.8"
     transform="matrix(1.25,0,0,1.25,-813.00005,-223)" />
  <g
     id="layer4"
     style="display:inline;stroke-width:0.8"
     transform="matrix(1.25,0,0,1.25,-813.00005,-223)" />
  <g
     id="g1812"
     style="display:inline;stroke-width:0.8"
     transform="matrix(1.25,0,0,1.25,-813.00005,-223)" />
  <g
     id="g6217"
     style="display:inline;stroke-width:0.8"
     transform="matrix(1.25,0,0,1.25,-813.00005,-223)" />
  <g
     id="layer3"
     style="display:inline;stroke-width:0.8"
     transform="matrix(1.25,0,0,1.25,-813.00005,-223)" />
  <g
     id="layer1"
     style="display:inline;stroke-width:0.8"
     transform="matrix(1.25,0,0,1.25,-813.00005,-223)" />
  <path
     id="path47"
     style="fill:#808080;fill-rule:evenodd;stroke-linecap:square;stroke-linejoin:round"
     d="M 11.5 2 A 9.5 9.5 0 0 0 5.046875 4.5820312 L 4.9882812 4.5234375 L 3.7070312 3.2402344 C 3.4129255 4.0581508 3.1425419 4.8845447 2.8984375 5.71875 C 2.6559649 6.5567919 2.4343322 7.4008097 2.234375 8.25 C 3.070625 8.0625 3.9171875 7.8432031 4.7734375 7.5957031 C 5.6359375 7.3419531 6.4596875 7.0698438 7.2421875 6.7773438 L 5.875 5.4082031 L 5.75 5.2832031 A 8.5 8.5 0 0 1 11.5 3 A 8.5 8.5 0 0 1 20 11.5 A 8.5 8.5 0 0 1 11.5 20 A 8.5 8.5 0 0 1 3.0390625 12 L 2.0351562 12 A 9.5 9.5 0 0 0 11.5 21 A 9.5 9.5 0 0 0 21 11.5 A 9.5 9.5 0 0 0 11.5 2 z " />
</svg>

<svg height="24" width="24" xmlns="http://www.w3.org/2000/svg"><path style="fill:gray;stroke:none;stroke-width:2;stroke-linecap:round;stroke-linejoin:round" d="M11.5 4a7.5 7.5 0 0 0-4.27 1.352l.72.718a1 1 0 0 1-.358 1.645 37.65 37.65 0 0 1-2.535.84 1 1 0 0 1-.006.002c-.163.047-.326.091-.489.136A7.5 7.5 0 0 0 4 11.5a7.5 7.5 0 0 0 7.5 7.5 7.5 7.5 0 0 0 7.5-7.5A7.5 7.5 0 0 0 11.5 4zM11 6h1v5.813l3.377 3.857-.754.66L11 12.188V6z"/><path style="fill:gray;stroke-linecap:square;stroke-linejoin:round" d="M11.5 2a9.5 9.5 0 0 0-6.453 2.582l-.059-.059L3.707 3.24a43.093 43.093 0 0 0-.809 2.479 51.944 51.944 0 0 0-.664 2.531 43.154 43.154 0 0 0 2.54-.654 36.394 36.394 0 0 0 2.468-.819L5.875 5.408l-.125-.125A8.5 8.5 0 0 1 11.5 3a8.5 8.5 0 0 1 8.5 8.5 8.5 8.5 0 0 1-8.5 8.5 8.5 8.5 0 0 1-8.46-8H2.034a9.5 9.5 0 0 0 9.465 9 9.5 9.5 0 0 0 9.5-9.5A9.5 9.5 0 0 0 11.5 2z"/></svg>
